public/images/hunter.svg

<?xml version="1.0" encoding="UTF-8" standalone="no"?>
<!-- Created with Inkscape (http://www.inkscape.org/) -->

<svg
   width="512"
   height="512"
   viewBox="0 0 135.46666 135.46666"
   version="1.1"
   id="svg1304"
   inkscape:version="1.1 (c68e22c387, 2021-05-23)"
   sodipodi:docname="hunter.svg"
   xmlns:inkscape="http://www.inkscape.org/namespaces/inkscape"
   xmlns:sodipodi="http://sodipodi.sourceforge.net/DTD/sodipodi-0.dtd"
   xmlns="http://www.w3.org/2000/svg"
   xmlns:svg="http://www.w3.org/2000/svg">
  <sodipodi:namedview
     id="namedview1306"
     pagecolor="#505050"
     bordercolor="#eeeeee"
     borderopacity="1"
     inkscape:pageshadow="0"
     inkscape:pageopacity="0"
     inkscape:pagecheckerboard="0"
     inkscape:document-units="px"
     showgrid="false"
     width="512mm"
     units="px"
     inkscape:zoom="1"
     inkscape:cx="62.5"
     inkscape:cy="183.5"
     inkscape:window-width="1920"
     inkscape:window-height="1017"
     inkscape:window-x="1912"
     inkscape:window-y="-8"
     inkscape:window-maximized="1"
     inkscape:current-layer="layer1" />
  <defs
     id="defs1301">
    <filter
       style="color-interpolation-filters:sRGB;"
       inkscape:label="Colorize"
       id="filter139057"
       x="0"
       y="0"
       width="1"
       height="1">
      <feColorMatrix
         values="0.21 0.72 0.072 0 0 0.21 0.72 0.072 0 0 0.21 0.72 0.072 0 0 0 0 0 1 0 "
         id="feColorMatrix139055"
         result="fbSourceGraphic" />
      <feColorMatrix
         result="fbSourceGraphicAlpha"
         in="fbSourceGraphic"
         values="0 0 0 -1 0 0 0 0 -1 0 0 0 0 -1 0 0 0 0 1 0"
         id="feColorMatrix139265" />
      <feComposite
         in2="fbSourceGraphic"
         id="feComposite139267"
         operator="arithmetic"
         k1="0"
         k2="1"
         result="composite1"
         in="fbSourceGraphic" />
      <feColorMatrix
         id="feColorMatrix139269"
         in="composite1"
         values="1"
         type="saturate"
         result="colormatrix1" />
      <feFlood
         id="feFlood139271"
         flood-opacity="1"
         flood-color="rgb(0,0,0)"
         result="flood1" />
      <feBlend
         in2="colormatrix1"
         id="feBlend139273"
         in="flood1"
         mode="multiply"
         result="blend1" />
      <feBlend
         in2="blend1"
         id="feBlend139275"
         mode="screen"
         result="blend2" />
      <feColorMatrix
         id="feColorMatrix139277"
         in="blend2"
         values="1"
         type="saturate"
         result="colormatrix2" />
      <feComposite
         in2="fbSourceGraphic"
         id="feComposite139279"
         in="colormatrix2"
         operator="in"
         k2="1"
         result="composite2" />
    </filter>
  </defs>
  <g
     inkscape:label="Layer 1"
     inkscape:groupmode="layer"
     id="layer1">
    <path
       style="opacity:1;fill:#000000;stroke-width:0.80979"
       d="M 54.848342,66.666413 29.657338,115.75386 22.148276,100.07008 55.061265,61.238346 17.730109,93.38679 5.2219312,71.991643 c -0.124236,-0.2125 1.9066314,-0.22604 3.2081439,-0.22604 3.3943979,0 13.8175619,-5.573488 22.7370709,-12.218061 4.242981,-3.160802 8.117888,-7.231874 13.163131,-8.804692 4.759587,-1.483767 9.337147,0.0108 14.315843,-0.249624 l 2.152229,-3.109896 4.761878,0.0886 v 44.571117 l -8.95485,6.044004 1.664773,18.866889 10.041927,-6.70333 10.21019,6.70299 1.997692,-18.784295 -9.446186,-6.126258 V 47.471936 h 6.67155 l 1.899237,3.041161 15.622652,0.348336 c 2.759834,0.06153 8.250348,5.155556 11.657188,7.678749 7.69123,5.696307 15.76838,11.003189 20.00028,12.370141 1.6702,0.539486 3.94492,0.829399 3.94492,1.050373 0,0.38286 -13.03665,22.737437 -13.69765,23.505237 L 80.273613,58.808981 111.90052,101.65737 103.74856,116.3459 82.155412,64.915779 101.24031,124.12186 H 34.609181 Z M 35.599382,11.344794 H 67.119526 L 55.300945,28.950806 65.560227,23.87558 65.497577,39.374045 60.92843,39.479811 57.580503,36.658935 c -1.92981,-1.626006 -4.02306,-0.833921 -6.612127,-0.03859 -2.589067,0.795331 -6.167542,3.499513 -6.695232,3.982209 L 31.890283,51.929591 19.695386,63.632554 c -2.981848,2.861562 -8.970418,5.855155 -12.7936042,5.739302 L 2.3812513,69.234871 Z M 127.44599,68.263103 C 125.00748,66.94196 122.3719,65.932978 120.13047,64.299667 115.66657,61.046864 107.65226,53.162368 107.65226,53.162368 95.803027,41.833919 89.647406,36.875691 85.009226,35.687746 c -2.570039,-0.658245 -3.428639,0.200078 -5.493155,1.601108 l -3.07267,2.085193 H 71.073773 V 23.875582 L 81.088042,28.846793 69.097206,11.344796 H 100.46241 L 132.945,68.341154 c 0.7215,1.266015 -1.37134,2.158258 -5.49901,-0.07805 z"
       id="path159302"
       sodipodi:nodetypes="cccccsssscccccccccccccssssccccccccccccccssscssccsssssccccccss" />
  </g>
</svg>

<svg width="512" height="512" viewBox="0 0 135.467 135.467" xmlns="http://www.w3.org/2000/svg"><path style="opacity:1;fill:#000;stroke-width:.80979" d="m54.848 66.666-25.19 49.088-7.51-15.684 32.913-38.832-37.33 32.149L5.22 71.992c-.123-.213 1.908-.226 3.21-.226 3.393 0 13.817-5.574 22.736-12.218 4.243-3.161 8.118-7.232 13.163-8.805 4.76-1.484 9.337.01 14.316-.25l2.152-3.11 4.762.089v44.571l-8.955 6.044 1.665 18.867 10.042-6.703 10.21 6.703 1.998-18.785-9.446-6.126V47.472h6.671l1.9 3.041 15.622.348c2.76.062 8.25 5.156 11.657 7.68 7.692 5.695 15.769 11.002 20 12.37 1.67.539 3.946.829 3.946 1.05 0 .383-13.037 22.737-13.698 23.505L80.274 58.809l31.627 42.848-8.152 14.689-21.594-51.43 19.085 59.206H34.61zM35.6 11.345h31.52L55.302 28.95l10.26-5.075-.063 15.498-4.57.106-3.347-2.821c-1.93-1.626-4.024-.834-6.613-.039-2.589.796-6.167 3.5-6.695 3.983L31.89 51.93 19.695 63.633c-2.981 2.861-8.97 5.855-12.793 5.739l-4.52-.137zm91.847 56.918c-2.439-1.321-5.074-2.33-7.316-3.963-4.463-3.253-12.478-11.138-12.478-11.138C95.803 41.834 89.647 36.876 85.01 35.688c-2.57-.658-3.428.2-5.493 1.6l-3.073 2.086h-5.37V23.876l10.015 4.97-11.99-17.501h31.364l32.483 56.996c.722 1.266-1.371 2.158-5.499-.078z"/></svg>
